hornpipes/bobbycaseys.htmlhornpipes/bobbycaseys.htmlhornpipes/bobbycaseys.htmlhornpipes/bobbycaseys.htmlhornpipes/bobbycaseys.htmlhornpipes/bobbycaseys.htmlhornpipes/bobbycaseys.htmlhornpipes/bobbycaseys.htmlhornpipes/bobbycaseys.html(set dance)
hornpipes/bobbycaseys.htmlhornpipes/bobbycaseys.html<PRE>T:Ace and Deuce of Pipering, The
T:Ace and Deuce of Pipering, The
M:4/4
L:1/8
R:set dance
Z:Devin McCabe
K:G
|:(3d^c=c|B2 cA Bd cA|Bd cA B2 AG|d2 ec d2 ec|df ec dc BA|
!e2 fd ed cB|Ad d^c d=c BA|BG cA B2 AG|FG AB cB cA|
!G2 ge fd cA|FG AB cA FG|AG GF G2 FG|1AG GF G2 (3d^c=c:|2AG GF G2 GF|
!|:G2=f2e2f2|G2 =fg fd cA|G2 g2 ^f2 g2|d2 ga gf dc|
!|A2 =f2 e2 f2|d^c de ^fe fg|ag (3fga gf dc|BG cA B2 AF|
!G2 ge fd cA|FG AB cA FG|AG GF G2 FG|1AG GF G2 GF:|2AG GF G4|

%  ABC2Win Version 2.1 7/3/2000
hornpipes/bobbycaseys.htmlhornpipes/bobbycaseys.htmlhornpipes/bobbycaseys.htmlhornpipes/bobbycaseys.htmlhornpipes/bobbycaseys.htmlhornpipes/bobbycaseys.htmlhornpipes/bobbycaseys.html